;FLAVOR:Marlin
;TIME:14407
;Filament used: 11.7323m
;Layer height: 0.2
;MINX:36.2
;MINY:66.7
;MINZ:0.2
;MAXX:183.8
;MAXY:153.3
;MAXZ:16.6
;Generated with Cura_SteamEngine master
M140 S70
M105
M190 S70
M104 S246
M105
M109 S246
M82 ;absolute extrusion mode
; Ender 3 Custom Start G-code
G92 E0 ; Reset Extruder
G28 ; Home all axes
G1 Z2.0 F3000 ; Move Z Axis up little to prevent scratching of Heat Bed
G1 X0.1 Y20 Z0.3 F5000.0 ; Move to start position
G1 X0.1 Y200.0 Z0.3 F1500.0 E15 ; Draw the first line
G1 X0.4 Y200.0 Z0.3 F5000.0 ; Move to side a little
G1 X0.4 Y20 Z0.3 F1500.0 E30 ; Draw the second line
G92 E0 ; Reset Extruder
G1 Z2.0 F3000 ; Move Z Axis up little to prevent scratching of Heat Bed
G1 X5 Y20 Z0.3 F5000.0 ; Move over to prevent blob squish
G92 E0
G92 E0
G1 F3000 E-6
;LAYER_COUNT:83
;LAYER:0
M107
G0 F6000 X39.914 Y75.454 Z0.2
;TYPE:SKIRT
G1 F3000 E0
G1 F900 X40.588 Y75.155 E0.02452
G1 X41.29 Y74.93 E0.04904
G1 X42.013 Y74.782 E0.07359
G1 X42.818 Y74.712 E0.10046
G1 X43.139 Y74.703 E0.11114
G1 X43.33 Y74.7 E0.1175
G1 X63.026 Y74.7 E0.77259
G1 X65.672 Y74.663 E0.8606
G1 X68.323 Y74.55 E0.94886
G1 X70.947 Y74.364 E1.03635
G1 X73.578 Y74.103 E1.12429
G1 X76.174 Y73.771 E1.21133
G1 X78.817 Y73.356 E1.30032
G1 X81.36 Y72.883 E1.38635
G1 X83.961 Y72.323 E1.47484
G1 X86.519 Y71.697 E1.56243
G1 X89.051 Y71 E1.64978
G1 X91.596 Y70.221 E1.7383
G1 X94.071 Y69.386 E1.82518
G1 X96.547 Y68.472 E1.91296
G1 X98.233 Y67.781 E1.97357
G1 X98.326 Y67.749 E1.97684
G1 X99.583 Y67.25 E2.02182
G1 X100.283 Y67.016 E2.04637
G1 X101.079 Y66.847 E2.07343
G1 X101.471 Y66.788 E2.08662
G1 X101.986 Y66.73 E2.10386
G1 X102.298 Y66.713 E2.11425
G1 X102.542 Y66.705 E2.12237
G1 X102.765 Y66.701 E2.12979
G1 X116.793 Y66.7 E2.59636
G1 X117.588 Y66.711 E2.6228
G1 X118.112 Y66.738 E2.64026
G1 X118.232 Y66.749 E2.64426
G1 X118.618 Y66.796 E2.6572
G1 X118.865 Y66.833 E2.6655
G1 X119.588 Y66.982 E2.69006
G1 X120.343 Y67.228 E2.71647
G1 X121.506 Y67.686 E2.75804
G1 X122.496 Y68.096 E2.79368
G1 X124.916 Y69.02 E2.87984
G1 X127.423 Y69.897 E2.96817
G1 X129.941 Y70.699 E3.05607
G1 X132.478 Y71.428 E3.14386
G1 X135.024 Y72.083 E3.2313
G1 X137.64 Y72.678 E3.32053
G1 X140.161 Y73.174 E3.40599
G1 X142.802 Y73.619 E3.49507
G1 X145.385 Y73.978 E3.5818
G1 X148.032 Y74.271 E3.67038
G1 X150.64 Y74.485 E3.75741
G1 X153.241 Y74.625 E3.84405
G1 X157.035 Y74.7 E3.97026
G1 X176.39 Y74.701 E4.61401
G1 X177.088 Y74.711 E4.63723
G1 X177.824 Y74.761 E4.66177
G1 X178.55 Y74.891 E4.6863
G1 X179.257 Y75.099 E4.71081
G1 X179.938 Y75.382 E4.73534
G1 X180.584 Y75.737 E4.75985
G1 X181.188 Y76.16 E4.78438
G1 X181.743 Y76.646 E4.80892
G1 X182.241 Y77.189 E4.83342
G1 X182.678 Y77.783 E4.85795
G1 X183.048 Y78.42 E4.88245
G1 X183.347 Y79.094 E4.90697
G1 X183.572 Y79.797 E4.93152
G1 X183.718 Y80.519 E4.95602
G1 X183.788 Y81.319 E4.98273
G1 X183.797 Y81.639 E4.99338
G1 X183.8 Y81.83 E4.99974
G1 X183.799 Y145.848 E7.12898
G1 X183.79 Y146.575 E7.15316
G1 X183.741 Y147.311 E7.1777
G1 X183.613 Y148.037 E7.20222
G1 X183.407 Y148.745 E7.22674
G1 X183.125 Y149.426 E7.25126
G1 X182.771 Y150.073 E7.27579
G1 X182.349 Y150.678 E7.30032
G1 X181.865 Y151.233 E7.32481
G1 X181.323 Y151.733 E7.34934
G1 X180.73 Y152.171 E7.37386
G1 X180.093 Y152.542 E7.39838
G1 X179.419 Y152.843 E7.42293
G1 X178.717 Y153.068 E7.44745
G1 X177.995 Y153.216 E7.47196
G1 X177.182 Y153.288 E7.49911
G1 X176.861 Y153.297 E7.50979
G1 X176.67 Y153.3 E7.51614
G1 X43.619 Y153.299 E11.94144
G1 X42.921 Y153.29 E11.96465
G1 X42.186 Y153.241 E11.98915
G1 X41.46 Y153.112 E12.01368
G1 X40.752 Y152.906 E12.0382
G1 X40.071 Y152.623 E12.06273
G1 X39.424 Y152.269 E12.08726
G1 X38.82 Y151.847 E12.11177
G1 X38.264 Y151.362 E12.13631
G1 X37.765 Y150.82 E12.16081
G1 X37.327 Y150.227 E12.18533
G1 X36.956 Y149.59 E12.20985
G1 X36.656 Y148.916 E12.23439
G1 X36.431 Y148.214 E12.25891
G1 X36.283 Y147.492 E12.28342
G1 X36.211 Y146.675 E12.3107
G1 X36.202 Y146.342 E12.32178
G1 X36.2 Y146.158 E12.3279
G1 X36.201 Y82.082 E14.45907
G1 X36.21 Y81.417 E14.48119
G1 X36.26 Y80.681 E14.50573
G1 X36.389 Y79.956 E14.53022
G1 X36.596 Y79.248 E14.55476
G1 X36.878 Y78.567 E14.57927
G1 X37.233 Y77.92 E14.60382
G1 X37.655 Y77.316 E14.62832
G1 X38.141 Y76.761 E14.65286
G1 X38.684 Y76.262 E14.67739
G1 X39.277 Y75.825 E14.70189
G1 X39.914 Y75.454 E14.72641
G0 F6000 X40.288 Y75.716
G1 F900 X40.952 Y75.449 E14.75021
G1 X41.641 Y75.257 E14.774
G1 X42.347 Y75.143 E14.79779
G1 X42.83 Y75.112 E14.81388
G1 X43.33 Y75.1 E14.83052
G1 X63.031 Y75.1 E15.48578
G1 X65.693 Y75.062 E15.57432
G1 X68.333 Y74.95 E15.66221
G1 X70.978 Y74.763 E15.7504
G1 X73.635 Y74.499 E15.83921
G1 X76.25 Y74.165 E15.92689
G1 X78.846 Y73.757 E16.01429
G1 X81.453 Y73.272 E16.10249
G1 X84.061 Y72.711 E16.19122
G1 X86.582 Y72.094 E16.27754
G1 X89.169 Y71.382 E16.36678
G1 X91.725 Y70.599 E16.4557
G1 X94.212 Y69.76 E16.543
G1 X96.684 Y68.847 E16.63064
G1 X98.384 Y68.151 E16.69174
G1 X98.49 Y68.114 E16.69547
G1 X99.731 Y67.622 E16.73988
G1 X100.41 Y67.396 E16.76368
G1 X101.138 Y67.242 E16.78843
G1 X101.53 Y67.183 E16.80161
G1 X102.017 Y67.129 E16.81791
G1 X102.311 Y67.112 E16.8277
G1 X102.555 Y67.104 E16.83582
G1 X102.765 Y67.101 E16.84281
G1 X116.793 Y67.1 E17.30938
G1 X117.583 Y67.111 E17.33566
G1 X118.075 Y67.137 E17.35205
G1 X118.195 Y67.148 E17.35605
G1 X118.559 Y67.192 E17.36825
G1 X118.806 Y67.229 E17.37656
G1 X119.506 Y67.374 E17.40033
G1 X120.197 Y67.601 E17.42452
G1 X121.353 Y68.056 E17.46584
G1 X122.318 Y68.455 E17.50057
G1 X124.809 Y69.407 E17.58927
G1 X127.307 Y70.281 E17.67729
G1 X129.824 Y71.082 E17.76515
G1 X132.364 Y71.812 E17.85305
G1 X134.95 Y72.477 E17.94185
G1 X137.513 Y73.06 E18.02928
G1 X140.123 Y73.574 E18.11775
G1 X142.712 Y74.01 E18.20508
G1 X145.357 Y74.378 E18.2939
G1 X147.957 Y74.666 E18.3809
G1 X150.62 Y74.884 E18.46977
G1 X153.242 Y75.025 E18.55711
G1 X157.027 Y75.1 E18.68302
G1 X176.385 Y75.101 E19.32687
G1 X177.083 Y75.111 E19.35009
G1 X177.796 Y75.161 E19.37386
G1 X178.5 Y75.29 E19.39766
G1 X179.184 Y75.498 E19.42144
G1 X179.841 Y75.78 E19.44522
G1 X180.463 Y76.134 E19.46903
G1 X181.041 Y76.555 E19.49281
G1 X181.569 Y77.038 E19.51661
G1 X182.039 Y77.576 E19.54037
G1 X182.447 Y78.164 E19.56418
G1 X182.786 Y78.794 E19.58797
G1 X183.053 Y79.457 E19.61174
G1 X183.244 Y80.147 E19.63556
G1 X183.357 Y80.853 E19.65934
G1 X183.388 Y81.33 E19.67523
G1 X183.4 Y81.83 E19.69187
G1 X183.4 Y145.843 E21.82095
G1 X183.391 Y146.57 E21.84513
G1 X183.342 Y147.284 E21.86894
G1 X183.214 Y147.988 E21.89273
G1 X183.008 Y148.673 E21.91653
G1 X182.727 Y149.33 E21.94029
G1 X182.374 Y149.953 E21.96411
G1 X181.954 Y150.532 E21.9879
G1 X181.472 Y151.06 E22.01168
G1 X180.935 Y151.532 E22.03546
G1 X180.347 Y151.94 E22.05926
G1 X179.718 Y152.281 E22.08306
G1 X179.055 Y152.549 E22.10684
G1 X178.366 Y152.741 E22.13063
G1 X177.66 Y152.856 E22.15442
G1 X177.17 Y152.888 E22.17076
G1 X176.67 Y152.9 E22.18739
G1 X43.624 Y152.899 E26.61252
G1 X42.926 Y152.89 E26.63574
G1 X42.213 Y152.841 E26.65951
G1 X41.509 Y152.713 E26.68331
G1 X40.824 Y152.507 E26.7071
G1 X40.167 Y152.225 E26.73088
G1 X39.545 Y151.872 E26.75466
G1 X38.966 Y151.452 E26.77845
G1 X38.437 Y150.97 E26.80226
G1 X37.966 Y150.432 E26.82604
G1 X37.558 Y149.845 E26.84982
G1 X37.218 Y149.215 E26.87363
G1 X36.95 Y148.552 E26.89741
G1 X36.758 Y147.863 E26.9212
G1 X36.644 Y147.157 E26.94499
G1 X36.611 Y146.664 E26.96142
G1 X36.602 Y146.331 E26.9725
G1 X36.6 Y146.158 E26.97825
G1 X36.601 Y82.087 E29.10926
G1 X36.61 Y81.422 E29.13138
G1 X36.659 Y80.709 E29.15516
G1 X36.788 Y80.005 E29.17896
G1 X36.995 Y79.321 E29.20273
G1 X37.277 Y78.663 E29.22654
G1 X37.63 Y78.041 E29.25033
G1 X38.05 Y77.463 E29.27409
G1 X38.533 Y76.935 E29.29789
G1 X39.071 Y76.464 E29.32167
G1 X39.659 Y76.056 E29.34548
G1 X40.288 Y75.716 E29.36926
G0 F6000 X40.039 Y76.296
G1 F900 X40.659 Y75.988 E29.39228
G1 X41.311 Y75.754 E29.41532
G1 X41.985 Y75.597 E29.43834
G1 X42.841 Y75.511 E29.46696
G1 X43.162 Y75.502 E29.47764
G1 X43.33 Y75.5 E29.48322
G1 X63.037 Y75.5 E30.13868
G1 X65.68 Y75.463 E30.2266
G1 X68.38 Y75.348 E30.31648
G1 X71.007 Y75.162 E30.40407
G1 X73.688 Y74.896 E30.49368
G1 X76.296 Y74.562 E30.58113
G1 X78.91 Y74.152 E30.66914
G1 X81.538 Y73.663 E30.75805
G1 X84.135 Y73.104 E30.8464
G1 X86.711 Y72.473 E30.93461
G1 X89.287 Y71.764 E31.02348
G1 X91.833 Y70.985 E31.11203
G1 X94.33 Y70.142 E31.19969
G1 X96.84 Y69.216 E31.28867
G1 X98.536 Y68.521 E31.34963
G1 X98.637 Y68.486 E31.35319
G1 X99.878 Y67.994 E31.39759
G1 X100.536 Y67.776 E31.42064
G1 X101.198 Y67.638 E31.44314
G1 X101.59 Y67.579 E31.45632
G1 X102.049 Y67.528 E31.47168
G1 X102.324 Y67.512 E31.48084
G1 X102.568 Y67.504 E31.48896
G1 X102.765 Y67.501 E31.49552
G1 X116.793 Y67.5 E31.96209
G1 X117.577 Y67.511 E31.98817
G1 X118.039 Y67.535 E32.00355
G1 X118.159 Y67.546 E32.00756
G1 X118.5 Y67.587 E32.01899
G1 X118.747 Y67.624 E32.02729
G1 X119.425 Y67.766 E32.05033
G1 X120.05 Y67.973 E32.07223
G1 X121.2 Y68.425 E32.11333
G1 X122.19 Y68.835 E32.14897
G1 X124.683 Y69.787 E32.23772
G1 X127.169 Y70.656 E32.32532
G1 X129.688 Y71.459 E32.41325
G1 X132.268 Y72.2 E32.50253
G1 X134.866 Y72.868 E32.59175
G1 X137.445 Y73.455 E32.67972
G1 X140.016 Y73.961 E32.76688
G1 X142.667 Y74.408 E32.85629
G1 X145.29 Y74.773 E32.94438
G1 X147.951 Y75.067 E33.03342
G1 X150.601 Y75.284 E33.12185
G1 X153.211 Y75.425 E33.20879
G1 X157.02 Y75.5 E33.3355
G1 X176.379 Y75.501 E33.97938
G1 X177.077 Y75.511 E34.0026
G1 X177.768 Y75.56 E34.02564
G1 X178.448 Y75.69 E34.04867
G1 X179.109 Y75.896 E34.0717
G1 X179.742 Y76.178 E34.09475
G1 X180.338 Y76.53 E34.11777
G1 X180.889 Y76.949 E34.14079
G1 X181.389 Y77.429 E34.16384
G1 X181.83 Y77.963 E34.18688
G1 X182.207 Y78.544 E34.20991
G1 X182.514 Y79.165 E34.23295
G1 X182.747 Y79.817 E34.25598
G1 X182.904 Y80.491 E34.279
G1 X182.989 Y81.341 E34.30741
G1 X182.998 Y81.661 E34.31806
G1 X183 Y81.83 E34.32368
G1 X183 Y145.838 E36.4526
G1 X182.991 Y146.565 E36.47678
G1 X182.942 Y147.256 E36.49982
G1 X182.814 Y147.937 E36.52287
G1 X182.609 Y148.598 E36.54588
G1 X182.329 Y149.231 E36.56891
G1 X181.977 Y149.828 E36.59196
G1 X181.56 Y150.381 E36.61499
G1 X181.081 Y150.881 E36.63802
G1 X180.548 Y151.323 E36.66105
G1 X179.967 Y151.701 E36.68411
G1 X179.347 Y152.009 E36.70713
G1 X178.696 Y152.244 E36.73015
G1 X178.021 Y152.402 E36.75321
G1 X177.159 Y152.489 E36.78202
G1 X176.838 Y152.498 E36.79271
G1 X176.67 Y152.5 E36.79829
G1 X43.63 Y152.5 E41.22322
G1 X42.932 Y152.491 E41.24644
G1 X42.241 Y152.442 E41.26948
G1 X41.56 Y152.313 E41.29253
G1 X40.899 Y152.108 E41.31555
G1 X40.266 Y151.827 E41.33859
G1 X39.669 Y151.476 E41.36162
G1 X39.117 Y151.058 E41.38465
G1 X38.617 Y150.579 E41.40768
G1 X38.175 Y150.045 E41.43074
G1 X37.798 Y149.465 E41.45374
G1 X37.49 Y148.844 E41.4768
G1 X37.255 Y148.193 E41.49982
G1 X37.098 Y147.518 E41.52287
G1 X37.011 Y146.653 E41.55178
G1 X37.002 Y146.32 E41.56286
G1 X37 Y146.158 E41.56825
G1 X37.001 Y82.093 E43.69906
G1 X37.01 Y81.428 E43.72118
G1 X37.059 Y80.737 E43.74422
G1 X37.187 Y80.057 E43.76724
G1 X37.394 Y79.395 E43.79031
G1 X37.675 Y78.762 E43.81334
G1 X38.027 Y78.166 E43.83636
G1 X38.445 Y77.614 E43.85939
G1 X38.924 Y77.114 E43.88242
G1 X39.458 Y76.673 E43.90546
G1 X40.039 Y76.296 E43.92849
G0 F6000 X40.416 Y76.545
G1 F900 X41.027 Y76.272 E43.95075
G1 X41.665 Y76.073 E43.97298
G1 X42.323 Y75.951 E43.99524
G1 X42.852 Y75.911 E44.01288
G1 X43.173 Y75.902 E44.02356
G1 X43.33 Y75.9 E44.02879
G1 X63.043 Y75.9 E44.68444
G1 X65.703 Y75.862 E44.77292
G1 X68.389 Y75.748 E44.86234
G1 X71.042 Y75.56 E44.9508
G1 X73.708 Y75.296 E45.03991
G1 X76.372 Y74.955 E45.12923
G1 X78.973 Y74.546 E45.21681
G1 X81.624 Y74.054 E45.30649
G1 X84.25 Y73.488 E45.39583
G1 X86.798 Y72.864 E45.48308
G1 X89.372 Y72.156 E45.57187
G1 X91.973 Y71.36 E45.66234
G1 X94.46 Y70.521 E45.74964
G1 X96.987 Y69.588 E45.83924
G1 X98.688 Y68.891 E45.90038
G1 X98.793 Y68.855 E45.90407
G1 X100.026 Y68.366 E45.94819
G1 X100.661 Y68.157 E45.97042
G1 X101.258 Y68.033 E45.9907
G1 X101.65 Y67.974 E46.00389
G1 X102.08 Y67.926 E46.01828
G1 X102.337 Y67.912 E46.02684
G1 X102.581 Y67.904 E46.03496
G1 X102.765 Y67.901 E46.04108
G1 X116.793 Y67.9 E46.50765
G1 X117.571 Y67.911 E46.53353
G1 X118.002 Y67.933 E46.54788
G1 X118.122 Y67.944 E46.55189
G1 X118.441 Y67.983 E46.56258
G1 X118.688 Y68.02 E46.57089
G1 X119.342 Y68.158 E46.59312
G1 X119.904 Y68.345 E46.61282
G1 X121.047 Y68.795 E46.65368
G1 X122.042 Y69.207 E46.68949
G1 X124.513 Y70.151 E46.77747
G1 X127.053 Y71.039 E46.86697
G1 X129.594 Y71.848 E46.95566
G1 X132.172 Y72.589 E47.04488
G1 X134.75 Y73.252 E47.13341
G1 X137.344 Y73.842 E47.22189
G1 X139.986 Y74.362 E47.31145
G1 X142.612 Y74.804 E47.40002
G1 X145.227 Y75.169 E47.48784
G1 X147.907 Y75.465 E47.57752
G1 X150.548 Y75.682 E47.66566
G1 X153.212 Y75.825 E47.75439
G1 X157.012 Y75.9 E47.8808
G1 X176.373 Y75.901 E48.52475
G1 X177.071 Y75.911 E48.54797
G1 X177.738 Y75.96 E48.57021
G1 X178.395 Y76.089 E48.59248
G1 X179.031 Y76.295 E48.61472
G1 X179.639 Y76.576 E48.63699
G1 X180.208 Y76.926 E48.65921
G1 X180.732 Y77.343 E48.68149
G1 X181.202 Y77.819 E48.70374
G1 X181.612 Y78.347 E48.72597
G1 X181.957 Y78.921 E48.74824
G1 X182.23 Y79.532 E48.7705
G1 X182.428 Y80.171 E48.79275
G1 X182.549 Y80.829 E48.81501
G1 X182.589 Y81.353 E48.83248
G1 X182.598 Y81.673 E48.84313
G1 X182.6 Y81.83 E48.84835
G1 X182.6 Y145.833 E50.9771
G1 X182.591 Y146.56 E51.00128
G1 X182.542 Y147.228 E51.02356
G1 X182.415 Y147.884 E51.04579
G1 X182.21 Y148.521 E51.06804
G1 X181.931 Y149.129 E51.09029
G1 X181.581 Y149.699 E51.11254
G1 X181.165 Y150.224 E51.13482
G1 X180.69 Y150.695 E51.15707
G1 X180.163 Y151.106 E51.17929
G1 X179.59 Y151.452 E51.20156
G1 X178.98 Y151.726 E51.2238
G1 X178.341 Y151.926 E51.24607
G1 X177.683 Y152.048 E51.26833
G1 X177.148 Y152.089 E51.28617
G1 X176.827 Y152.098 E51.29685
G1 X176.67 Y152.1 E51.30208
G1 X43.635 Y152.1 E55.72684
G1 X42.937 Y152.091 E55.75006
G1 X42.27 Y152.042 E55.7723
G1 X41.613 Y151.914 E55.79456
G1 X40.976 Y151.709 E55.81682
G1 X40.368 Y151.429 E55.83908
G1 X39.798 Y151.079 E55.86133
G1 X39.274 Y150.663 E55.88358
G1 X38.803 Y150.188 E55.90583
G1 X38.392 Y149.66 E55.92809
G1 X38.047 Y149.087 E55.95033
G1 X37.773 Y148.477 E55.97257
G1 X37.573 Y147.838 E55.99484
G1 X37.452 Y147.18 E56.0171
G1 X37.411 Y146.642 E56.03504
G1 X37.402 Y146.309 E56.04612
G1 X37.4 Y146.158 E56.05114
G1 X37.401 Y82.098 E58.18179
G1 X37.41 Y81.433 E58.20391
G1 X37.459 Y80.766 E58.22615
G1 X37.587 Y80.109 E58.24842
G1 X37.792 Y79.473 E58.27064
G1 X38.072 Y78.865 E58.2929
G1 X38.423 Y78.295 E58.31517
G1 X38.839 Y77.771 E58.33742
G1 X39.314 Y77.301 E58.35965
G1 X39.843 Y76.89 E58.38193
G1 X40.416 Y76.545 E58.40417
G0 F6000 X40.79 Y76.806
G1 F900 X41.389 Y76.568 E58.42561
G1 X42.013 Y76.405 E58.44706
G1 X42.863 Y76.311 E58.47551
G1 X43.184 Y76.302 E58.48619
G1 X43.33 Y76.3 E58.49104
G1 X63.048 Y76.3 E59.14687
G1 X65.726 Y76.262 E59.23595
G1 X68.399 Y76.149 E59.32493
G1 X71.073 Y75.959 E59.41409
G1 X73.765 Y75.692 E59.50407
G1 X76.414 Y75.353 E59.59289
G1 X79.078 Y74.935 E59.68258
G1 X81.669 Y74.453 E59.77024
G1 X84.324 Y73.882 E59.86056
G1 X86.894 Y73.252 E59.94857
G1 X89.522 Y72.529 E60.03923
G1 X92.08 Y71.746 E60.1282
G1 X94.61 Y70.892 E60.21701
G1 X97.109 Y69.97 E60.30561
G1 X98.839 Y69.261 E60.36779
G1 X98.929 Y69.23 E60.37096
G1 X100.173 Y68.737 E60.41547
G1 X100.786 Y68.537 E60.43691
G1 X101.317 Y68.429 E60.45493
G1 X101.709 Y68.37 E60.46812
G1 X102.112 Y68.325 E60.48161
G1 X102.351 Y68.312 E60.48957
G1 X102.595 Y68.304 E60.49769
G1 X102.765 Y68.301 E60.50334
G1 X116.793 Y68.3 E60.96991
G1 X117.565 Y68.311 E60.99559
G1 X117.966 Y68.332 E61.00895
G1 X118.086 Y68.343 E61.01296
G1 X118.381 Y68.378 E61.02284
G1 X118.628 Y68.415 E61.03115
G1 X119.259 Y68.55 E61.05261
G1 X119.758 Y68.718 E61.07012
G1 X120.894 Y69.164 E61.11071
G1 X121.895 Y69.578 E61.14674
G1 X124.406 Y70.537 E61.23614
G1 X126.915 Y71.415 E61.32455
G1 X129.467 Y72.228 E61.41363
G1 X132.058 Y72.972 E61.50329
G1 X134.667 Y73.643 E61.59289
G1 X137.283 Y74.239 E61.68213
G1 X139.879 Y74.749 E61.77012
G1 X142.562 Y75.201 E61.86062
G1 X145.199 Y75.568 E61.94917
G1 X147.832 Y75.86 E62.03728
